X: 1134
T: Kilcar, The
M: 3/4
L: 1/8
R: varsovienne
K: G Major
|: bg d2 B2 | GB e2 g2 | fd (3cdc A2 | GB d3 g |
bg d2 c2 | Ac e2 g2 | fe d2 f2 | a2 g3 a :|
|: bd g2 e2 | fg a3 g | fg e2 f2 | ge d3 c |
Bd g2 e2 | fg a3 g | fg e2 f2 |[1 a2 g3 d :|[2 a2 g4 |]
